d1 $ slow 8 $ stut' 4 0.9 (|*| gain 0.9) $ jux (0.125 <~) $ palindrome $ jux(|-| n "1") $ n "0 2 4 6 8 10" # s "sawDetune" # detune 0

d1 $ slow 1 $ jux (slow 0.125) $ jux(|-| n "<12,24>") $ palindrome $ s "sawDetune" # n "[0,7]" |+| n "<0 12 24>" |+| n (choose[0,4,5]) # rel 4 # cutoff (scale 200 8000 $ slow 12 $ tri) # orbit 0 # room 0.8 # size (scale 0.2 1 $ slow 8 $ sine)
